X:182
T:Reel 182
M:4/4
K:Gmaj
L:1/8
B|G3B dBGB|c2eB AGef|G2Be d2BG| (3ABc BA AEEF|G2BG dBBB|cBcd efga|bgaf gedB|cABG AGE|D|G2BG dGBG|cBcd eAAc|G2BG dGBG|ABAB cdef|g2BG dGBG|cBcd efga|bgaf gedB|cBAG FGE|c|BGdG eGdG|AGdG cAAc|BGDG BGdG|cABG AGEG|BGdG eGdG|AGeG cAec|Bdef gfge|dBAc BGA|
